X:4249
T:Ungarescha
C:Giorgio Mainerio
O:Italy/Hungary
N:Repeats written out in full in the original
Z:Transcribed by Frank Nordberg - http://www.musicaviva.com
%http://abc.musicaviva.com/tunes/mainerio-giorgio/mnro-ungar/mnro-ungar-4m.abc
%Posted October 15th 2001 at abcusers by Frank Nordberg
V:1 Program 1 110 %Fiddle
V:2 Program 1 42 %Cello
V:3 Program 1 40 alto %Violin
V:4 Program 1 43 %Double bass
M:C|
L:1/4
K:Gmix
V:1
GGAG|GDDE/F/|GGAG|D2D2::BBBA/B/|
V:2
G,4|G,4|G,4|G,4::G,4|
V:3
D,4|D,4|D,4|D,4::D,4|
V:4
G,,4|G,,4|G,,4|G,,4::G,,4|
%
V:1
cBAG|BBBA/B/|cBAc|BGAG/F/|G2G2:|
V:2
G,4|G,4|G,4|G,4|G,4:|
V:3
D,4|D,4|D,4|D,4|D,4:|
V:4
G,,4|G,,4|G,,4|G,,4|G,,4:|
%
V:1
M:3/4
L:1/4
"^Saltarello"G2G|G2A|G2D|D2E/F/|G2A|G2D|D2E/F/|
V:2
M:3/4
L:1/4
G,3|G,3|G,3|G,3|G,3|G,3|G,3|
V:3
M:3/4
L:1/4
D,3|D,3|D,3|D,3|D,3|D,3|D,3|
V:4
M:3/4
L:1/4
G,,3|G,,3|G,,3|G,,3|G,,3|G,,3|G,,3|
%
V:1
G2A|G2D|D2E/F/|G2A|G2D|D2E/F/|G2A|
V:2
G,3|G,3|G,3|G,3|G,3|G,3|G,3|
V:3
D,3|D,3|D,3|D,3|D,3|D,3|D,3|
V:4
G,,3|G,,3|G,,3|G,,3|G,,3|G,,3|G,,3|
%
V:1
G2D|D3|:B2B|B2A/B/|c2B|A2G|B2B|
V:2
G,3|G,3|:G,3|G,3|G,3|G,3|G,3|
V:3
D,3|D,3|:D,3|D,3|D,3|D,3|D,3|
V:4
G,,3|G,,3|:G,,3|G,,3|G,,3|G,,3|G,,3|
%
V:1
B2A/B/|c2B|A2c|B2G|A2G/F/|G3|G3:|
V:2
G,3|G,3|G,3|G,3|G,3|G,3|G,3:|
V:3
D,3|D,3|D,3|D,3|D,3|D,3|D,3:|
V:4
G,,3|G,,3|G,,3|G,,3|G,,3|G,,3|G,,3:|
W:
W:
W:  From Musica Viva - http://www.musicaviva.com
W:  the Internet center for free sheet music downloads.

